assets/Motor boat/Flat/motor_boat_flat.svg

<svg width="32" height="32" viewBox="0 0 32 32" fill="none" xmlns="http://www.w3.org/2000/svg">
<path d="M29.0547 25H27V21H29.0547C29.5756 21 30 21.4241 30 21.9446V24.0554C30 24.5855 29.5756 25 29.0547 25Z" fill="#998EA4"/>
<path d="M20 10.9999H24V9H21L20 10.9999ZM26 12.0729V17L17 18L7 17L12 12.0091L18.9902 11.75L25.9805 12L25.9865 12.0161C25.9939 12.0353 26 12.0513 26 12.0729ZM2 19V19.0764C2.52241 23.5346 6.49073 27 11.323 27H26.9552C27.5278 27 28 26.5609 28 26.0072V19.0764V19H2Z" fill="#CDC4D6"/>
<path d="M23.0227 13H20.9578C20.4291 13 19.9902 13.4286 19.9902 13.9668V15.0332C19.9902 15.5615 20.4192 16 20.9578 16H23.0227C23.5513 16 23.9902 15.5714 23.9902 15.0332V13.9668C23.9902 13.4385 23.5613 13 23.0227 13Z" fill="#26EAFC"/>
<path d="M18 14.99V14C18 13.45 17.5482 13 16.996 13H11.012L8 16H16.996C17.5482 15.99 18 15.54 18 14.99Z" fill="#26EAFC"/>
<path d="M18 14V14.99C18 15.54 17.5482 15.99 16.996 16H8L11.012 13H16.996C17.5482 13 18 13.45 18 14ZM20.9576 13H23.0224C23.5611 13 23.99 13.4385 23.99 13.9668V15.0332C23.99 15.5714 23.5511 16 23.0224 16H20.9576C20.4189 16 19.99 15.5615 19.99 15.0332V13.9668C19.99 13.4286 20.4289 13 20.9576 13Z" fill="#00A6ED"/>
<path d="M22.5 8H23C23.6064 8 24 8.49999 24 9H21C21 9 21.5 8 22.5 8ZM24.9362 11H13.4552C13.1642 11 12.8932 11.11 12.6925 11.31L12 12H26C25.9599 11.45 25.4982 11 24.9362 11ZM26.9576 17C27.5389 17 28 17.47 28 18.04V19L15 20L2 19V18.04C2 17.46 2.47109 17 3.04241 17H26.9576Z" fill="#F8312F"/>
<path d="M30 23C28.2506 23 28.2506 24.3067 26.4913 24.3067C24.7419 24.3067 24.7419 23 22.9825 23C21.2331 23 21.2331 24.3067 19.4838 24.3067C17.7344 24.3067 17.7344 23 15.985 23C14.2356 23 14.2356 24.3067 12.4863 24.3067C10.7369 24.3067 10.7369 23 8.9875 23C7.23813 23 7.23813 24.3067 5.49875 24.3067C3.74938 24.3067 3.74938 23 2 23V30H29.99L30 23Z" fill="#00A6ED"/>
</svg>

<svg xmlns="http://www.w3.org/2000/svg" width="32" height="32" fill="none"><path fill="#998EA4" d="M29.055 25H27v-4h2.055c.52 0 .945.424.945.945v2.11a.94.94 0 0 1-.945.945Z"/><path fill="#CDC4D6" d="M20 11h4V9h-3l-1 2Zm6 1.073V17l-9 1-10-1 5-4.99 6.99-.26 6.99.25.006.016c.008.02.014.035.014.057ZM2 19v.076C2.522 23.535 6.49 27 11.323 27h15.632c.573 0 1.045-.44 1.045-.993V19H2Z"/><path fill="#26EAFC" d="M23.023 13h-2.065a.968.968 0 0 0-.968.967v1.066c0 .529.43.967.968.967h2.065a.968.968 0 0 0 .967-.967v-1.066a.968.968 0 0 0-.967-.967ZM18 14.99V14c0-.55-.452-1-1.004-1h-5.984L8 16h8.996A1.02 1.02 0 0 0 18 14.99Z"/><path fill="#00A6ED" d="M18 14v.99c0 .55-.452 1-1.004 1.01H8l3.012-3h5.984c.552 0 1.004.45 1.004 1Zm2.958-1h2.064c.54 0 .968.438.968.967v1.066a.968.968 0 0 1-.968.967h-2.064a.968.968 0 0 1-.968-.967v-1.066c0-.538.439-.967.968-.967Z"/><path fill="#F8312F" d="M22.5 8h.5c.606 0 1 .5 1 1h-3s.5-1 1.5-1Zm2.436 3h-11.48c-.292 0-.563.11-.763.31L12 12h14c-.04-.55-.502-1-1.064-1Zm2.022 6c.58 0 1.042.47 1.042 1.04V19l-13 1-13-1v-.96c0-.58.471-1.04 1.042-1.04h23.916Z"/><path fill="#00A6ED" d="M30 23c-1.75 0-1.75 1.307-3.509 1.307-1.75 0-1.75-1.307-3.508-1.307-1.75 0-1.75 1.307-3.5 1.307-1.749 0-1.749-1.307-3.498-1.307-1.75 0-1.75 1.307-3.499 1.307-1.75 0-1.75-1.307-3.498-1.307-1.75 0-1.75 1.307-3.49 1.307C3.75 24.307 3.75 23 2 23v7h27.99l.01-7Z"/></svg>
